X: 12961
T: Fiddler, The
R: strathspey
M: 4/4
K: Aminor
|:a/|{ef}e<c {gcd}c>B {gBd}B<{e}A {GAG}A>a|{ef}e<c {gcd}c<e {gfg}f2 {g}f<a|
{ef}e<c {gcd}c>B {gBd}B<{e}A {GAG}A>e|{g}f/g/a {ef}e>a {cd}c<{e}B {GdG}B3/2:|
a/|{ef}e<c {gcd}c<e {gfg}f2 {g}f<a|{ef}e<c {gcd}c<a {ef}e<c {gcd}c<f|
{ef}e<c {gcd}c<e {gfg}f2 {g}f<a|{ef}e<a {cd}c<a {cd}c<{e}B {GdG}B>f|
{ef}e<c {gcd}c<e {gfg}f2 {g}f<a|{ef}e<c {gcd}c<a {cd}c<e {gcd}c<e|
{g}f/g/a {ef}e<a {Gdc}d<a {cd}c<e|{g}f/g/a {ef}e<a {cd}c<{e}B {GdG}B3/2||

